X:1
T:Title
%%score 1 { 2 | 3 }
L:1/8
Q:1/4=108
M:2/4
K:G
V:1 treble nm="Grand Piano, Unnamed-000"
V:2 bass nm="Choir Pad, Llef, LM"
V:3 bass 
V:1
 E2 EE | [EG]3 [EA] | [EG]2 [^DF]2 | E4 | [EG]2 [FA][FA] | [GB]3 [EB] | [^DA]2 [EG]2 | [^DF]4 | %8
w: By~Griffith~Hugh~Jones,~1890 * *||||||||
 B2 BB | [Fd]3 [Ge] | [Fd]2 [_B^c]2 | B4 | [EB]2 [^DA][DA] | [EG]3 [EA] | [EG]2 [^DF]2 | E4- | %16
w: ||||||||
 E4 |] %17
w: |
V:2
 E,2 E,E, | B,3 C | B,2 A,2 | G,4 | B,2[K:treble] DD | D3 G, | A,2[K:bass] _B,2 | B,4 | B,2 B,B, | %9
 B,3 B, | B,2 E2 | D4 | B,2 B,B, | B,3 C | B,2 A,2 | G,4- | G,4 |] %17
V:3
 z4 | E,3 A,, | B,,2 B,,2 | E,4 | E,2 D,D, | G,4 | F,2 E,2 | B,,4 | z4 | z2 z E, | F,2 F,2 | B,4 | %12
 G,2 F,F, | E,3 A,, | B,,2 B,,2 | E,4- | E,4 |] %17

